T: Lochiel's Awa' Tae France
M: 4/4
L: 1/8
K: Ador
eA A/A/A e2 dc | BG G/G/G Bddg | eA A/A/A e2 dg | edgB A/A/A A :|dega g/a/b ab | gd d/d/d gdde | de ga g/a/b ab | ge e/e/e geeg |dega b/a/g a/g/e | g/e/d e/d/B gd da/b/ | begd e2 dg | BA A/A/A gee ||
